X: 6327
T: Carry On
R: reel
M: 4/4
K: Dmajor
|:Aaaa gfed|fdAF G2GA|BGBd gfeg|fdfd edcB|
Aaaa gfed|fdAF G2GA|BGBd gfec|d4 d4:|
|:fdfa fdfa|fdfa g2gf|eceg ecec|Acec d2de|
fdfa fdfa|fdfa g2gf|ecef gece|d4 d4:|


